src/assets/outline/Xd.svg

<svg width="24" height="24" viewBox="0 0 24 24"  xmlns="http://www.w3.org/2000/svg">
<path d="M15 22.75H9C3.57 22.75 1.25 20.43 1.25 15V9C1.25 3.57 3.57 1.25 9 1.25H15C20.43 1.25 22.75 3.57 22.75 9V15C22.75 20.43 20.43 22.75 15 22.75ZM9 2.75C4.39 2.75 2.75 4.39 2.75 9V15C2.75 19.61 4.39 21.25 9 21.25H15C19.61 21.25 21.25 19.61 21.25 15V9C21.25 4.39 19.61 2.75 15 2.75H9Z" />
<path d="M17.9599 16.2809H16.1899C14.7999 16.2809 13.6699 15.151 13.6699 13.761C13.6699 12.371 14.7999 11.2409 16.1899 11.2409H17.2099V8.46094C17.2099 8.05094 17.5499 7.71094 17.9599 7.71094C18.3699 7.71094 18.7099 8.05094 18.7099 8.46094V15.5209C18.7099 15.9509 18.3699 16.2809 17.9599 16.2809ZM16.1899 12.7509C15.6299 12.7509 15.1699 13.2109 15.1699 13.7709C15.1699 14.3309 15.6299 14.791 16.1899 14.791H17.2099V12.761H16.1899V12.7509Z" />
<path d="M11.69 16.2804C11.47 16.2804 11.25 16.1804 11.1 16.0004L5.45001 8.94043C5.19001 8.62043 5.24002 8.14044 5.57002 7.89044C5.89002 7.63044 6.37 7.68044 6.62 8.01044L12.27 15.0704C12.53 15.3904 12.48 15.8704 12.15 16.1204C12.02 16.2304 11.86 16.2804 11.69 16.2804Z" />
<path d="M6.03981 16.2793C5.87981 16.2793 5.70983 16.2293 5.56983 16.1193C5.24983 15.8593 5.18981 15.3893 5.44981 15.0693L11.0998 8.00927C11.3598 7.68927 11.8298 7.62927 12.1498 7.88927C12.4698 8.14927 12.5298 8.61926 12.2698 8.93926L6.61981 15.9993C6.47981 16.1793 6.25981 16.2793 6.03981 16.2793Z" />
</svg>

<?xml version="1.0" encoding="UTF-8"?>
<svg width="24" height="24" viewBox="0 0 24 24" xmlns="http://www.w3.org/2000/svg">
 <path d="m15 22.75h-6c-5.43 0-7.75-2.32-7.75-7.75v-6c0-5.43 2.32-7.75 7.75-7.75h6c5.43 0 7.75 2.32 7.75 7.75v6c0 5.43-2.32 7.75-7.75 7.75zm-6-20c-4.61 0-6.25 1.64-6.25 6.25v6c0 4.61 1.64 6.25 6.25 6.25h6c4.61 0 6.25-1.64 6.25-6.25v-6c0-4.61-1.64-6.25-6.25-6.25h-6z"/>
 <path d="m17.96 16.281h-1.77c-1.39 0-2.52-1.1299-2.52-2.5199s1.13-2.5201 2.52-2.5201h1.02v-2.78c0-0.41 0.34-0.75 0.75-0.75s0.75 0.34 0.75 0.75v7.06c0 0.43-0.34 0.76-0.75 0.76zm-1.77-3.53c-0.56 0-1.02 0.46-1.02 1.02s0.46 1.0201 1.02 1.0201h1.02v-2.03h-1.02v-0.0101z"/>
 <path d="m11.69 16.28c-0.22 0-0.44-0.1-0.59-0.28l-5.65-7.06c-0.26-0.32-0.20999-0.79999 0.12001-1.05 0.32-0.26 0.79998-0.21 1.05 0.12l5.65 7.06c0.26 0.32 0.21 0.8-0.12 1.05-0.13 0.11-0.29 0.16-0.46 0.16z"/>
 <path d="m6.0398 16.279c-0.16 0-0.32998-0.05-0.46998-0.16-0.32-0.26-0.38002-0.73-0.12002-1.05l5.65-7.06c0.26-0.32 0.73-0.38 1.05-0.12s0.38 0.72999 0.12 1.05l-5.65 7.06c-0.14 0.18-0.36 0.28-0.58 0.28z"/>
</svg>
